build/images/marketplace.svg

<?xml version="1.0" encoding="utf-8"?>
<svg width="200px" height="200px" viewBox="0 0 200 200" version="1.1" xmlns:xlink="http://www.w3.org/1999/xlink" xmlns="http://www.w3.org/2000/svg">
  <defs>
    <path d="M0 75L0 60.0001C0 37.4231 10.1852 3.71093e-08 50 3.11387e-17C89.8148 -3.71093e-08 100 33.1684 100 60.0001L100 75L0 75Z" transform="translate(50 0)" id="path_1" />
    <path d="M0 9.999L0 90.001Q0 91.1057 0.0542033 92.209Q0.108407 93.3123 0.216682 94.4117Q0.324958 95.511 0.487046 96.6037Q0.649134 97.6964 0.864643 98.7799Q1.08015 99.8633 1.34856 100.935Q1.61697 102.006 1.93764 103.064Q2.25831 104.121 2.63046 105.161Q3.00261 106.201 3.42534 107.221Q3.84808 108.242 4.32039 109.241Q4.79269 110.239 5.31342 111.213Q5.83416 112.188 6.40207 113.135Q6.96998 114.083 7.5837 115.001Q8.19742 115.92 8.85546 116.807Q9.51351 117.694 10.2143 118.548Q10.9151 119.402 11.6569 120.22Q12.3988 121.039 13.1799 121.82Q13.961 122.601 14.7795 123.343Q15.598 124.085 16.4519 124.786Q17.3059 125.486 18.1931 126.145Q19.0804 126.803 19.9989 127.416Q20.9174 128.03 21.8649 128.598Q22.8124 129.166 23.7866 129.687Q24.7608 130.207 25.7594 130.68Q26.7581 131.152 27.7786 131.575Q28.7992 131.997 29.8393 132.37Q30.8794 132.742 31.9365 133.062Q32.9936 133.383 34.0651 133.651Q35.1367 133.92 36.2201 134.135Q37.3036 134.351 38.3963 134.513Q39.489 134.675 40.5883 134.783Q41.6877 134.892 42.791 134.946Q43.8943 135 44.999 135L155.001 135Q156.106 135 157.209 134.946Q158.312 134.892 159.412 134.783Q160.511 134.675 161.604 134.513Q162.696 134.351 163.78 134.135Q164.863 133.92 165.935 133.651Q167.006 133.383 168.064 133.062Q169.121 132.742 170.161 132.37Q171.201 131.997 172.221 131.575Q173.242 131.152 174.241 130.68Q175.239 130.207 176.213 129.687Q177.188 129.166 178.135 128.598Q179.083 128.03 180.001 127.416Q180.92 126.803 181.807 126.145Q182.694 125.486 183.548 124.786Q184.402 124.085 185.22 123.343Q186.039 122.601 186.82 121.82Q187.601 121.039 188.343 120.22Q189.085 119.402 189.786 118.548Q190.486 117.694 191.145 116.807Q191.803 115.92 192.416 115.001Q193.03 114.083 193.598 113.135Q194.166 112.188 194.687 111.213Q195.207 110.239 195.68 109.241Q196.152 108.242 196.575 107.221Q196.997 106.201 197.37 105.161Q197.742 104.121 198.062 103.064Q198.383 102.006 198.651 100.935Q198.92 99.8633 199.135 98.7799Q199.351 97.6964 199.513 96.6037Q199.675 95.511 199.783 94.4117Q199.892 93.3123 199.946 92.209Q200 91.1057 200 90.001L200 9.999Q200 9.75354 199.988 9.50837Q199.976 9.26321 199.952 9.01893Q199.928 8.77465 199.892 8.53184Q199.856 8.28904 199.808 8.04829Q199.76 7.80755 199.7 7.56944Q199.641 7.33134 199.569 7.09644Q199.498 6.86155 199.415 6.63044Q199.333 6.39932 199.239 6.17255Q199.145 5.94577 199.04 5.72388Q198.935 5.50198 198.819 5.2855Q198.704 5.06903 198.577 4.85849Q198.451 4.64795 198.315 4.44385Q198.178 4.23976 198.032 4.0426Q197.886 3.84545 197.73 3.6557Q197.575 3.46596 197.41 3.28408Q197.245 3.10221 197.071 2.92864Q196.898 2.75507 196.716 2.59023Q196.534 2.42539 196.344 2.26967Q196.155 2.11395 195.957 1.96773Q195.76 1.82151 195.556 1.68514Q195.352 1.54876 195.142 1.42257Q194.931 1.29638 194.715 1.18067Q194.498 1.06496 194.276 0.960011Q194.054 0.855062 193.827 0.761128Q193.601 0.667194 193.37 0.584501Q193.138 0.501807 192.904 0.430553Q192.669 0.3593 192.431 0.299657Q192.192 0.240015 191.952 0.192128Q191.711 0.144241 191.468 0.108224Q191.225 0.0722074 190.981 0.0481479Q190.737 0.0240885 190.492 0.0120442Q190.246 0 190.001 0L9.999 0Q9.75354 0 9.50837 0.0120442Q9.26321 0.0240885 9.01893 0.0481479Q8.77465 0.0722074 8.53184 0.108224Q8.28904 0.144241 8.04829 0.192128Q7.80755 0.240015 7.56944 0.299657Q7.33134 0.3593 7.09644 0.430553Q6.86155 0.501807 6.63044 0.584501Q6.39932 0.667194 6.17255 0.761128Q5.94577 0.855062 5.72388 0.960011Q5.50198 1.06496 5.2855 1.18067Q5.06903 1.29638 4.85849 1.42257Q4.64795 1.54876 4.44385 1.68514Q4.23976 1.82151 4.0426 1.96773Q3.84545 2.11395 3.6557 2.26967Q3.46596 2.42539 3.28408 2.59023Q3.10221 2.75507 2.92864 2.92864Q2.75507 3.10221 2.59023 3.28408Q2.42539 3.46596 2.26967 3.6557Q2.11395 3.84545 1.96773 4.0426Q1.82151 4.23976 1.68514 4.44385Q1.54876 4.64795 1.42257 4.85849Q1.29638 5.06903 1.18067 5.2855Q1.06496 5.50198 0.960011 5.72388Q0.855062 5.94577 0.761128 6.17255Q0.667194 6.39932 0.584501 6.63044Q0.501807 6.86155 0.430553 7.09644Q0.3593 7.33134 0.299657 7.56944Q0.240015 7.80755 0.192128 8.04829Q0.144241 8.28904 0.108224 8.53184Q0.0722074 8.77465 0.0481479 9.01893Q0.0240885 9.26321 0.0120442 9.50837Q0 9.75354 0 9.999L0 9.999Z" transform="translate(0 65)" id="path_2" />
    <clipPath id="clip_1">
      <use xlink:href="#path_1" />
    </clipPath>
    <clipPath id="clip_2">
      <use xlink:href="#path_2" />
    </clipPath>
  </defs>
  <g id="Bag">
    <g id="Shape-path-3">
      <g clip-path="url(#clip_1)">
        <use xlink:href="#path_1" fill="none" stroke="#323232" stroke-width="20" />
      </g>
    </g>
    <g id="Shape-path-2">
      <g clip-path="url(#clip_2)">
        <use xlink:href="#path_2" fill="none" stroke="#323232" stroke-width="20" />
      </g>
    </g>
  </g>
</svg>

<svg width="200" height="200" xmlns:xlink="http://www.w3.org/1999/xlink" xmlns="http://www.w3.org/2000/svg"><defs><clipPath id="c"><use xlink:href="#a"/></clipPath><clipPath id="d"><use xlink:href="#b"/></clipPath><path d="M0 75V60C0 37.4 10.2 0 50 0s50 33.2 50 60v15H0Z" transform="translate(50)" id="a"/><path d="M0 10v82.2l.2 2.2.3 2.2.4 2.2.4 2.1.6 2.2.7 2 .8 2.1 1 2 1 2 1 2 1.2 1.8 1.3 1.8 1.3 1.7 1.5 1.7 1.5 1.6 1.6 1.5 1.7 1.5 1.7 1.3 1.8 1.3 1.9 1.2 1.9 1 2 1 2 1 2 .8 2.1.7 2.2.6 2.1.4 2.2.4 2.2.3 2.2.1 2.2.1h112.2l2.2-.2 2.2-.3 2.2-.4 2.1-.4 2.2-.6 2-.7 2.1-.8 2-1 2-1 2-1 1.8-1.2 1.8-1.3 1.7-1.3 1.7-1.5 1.6-1.5 1.5-1.6 1.5-1.7 1.3-1.7 1.3-1.8 1.2-1.9 1-1.9 1-2 1-2 .8-2 .7-2.1.6-2.2.4-2.1.4-2.2.3-2.2.1-2.2.1-2.2V9l-.1-.5V8l-.2-.4-.1-.5-.2-.5-.2-.4q0-.3-.2-.5l-.2-.4-.2-.4-.3-.5-.3-.4-.3-.3-.3-.4-.3-.4-.4-.3-.4-.3-.3-.3-.4-.3-.5-.3-.4-.2-.4-.2-.5-.2-.4-.2-.5-.2-.5-.1-.4-.1h-.5L191 0H9l-.5.1H8l-.4.2-.5.1-.5.2-.4.2q-.3 0-.5.2l-.4.2-.4.2-.5.3L4 2l-.3.3-.4.3-.4.3-.3.4-.3.4L2 4l-.3.4-.3.5-.2.4-.2.4-.2.5-.2.4-.2.5-.1.5-.1.4v.5L0 9v1Z" transform="translate(0 65)" id="b"/></defs><g clip-path="url(#c)"><use xlink:href="#a" fill="none" stroke="#323232" stroke-width="20"/></g><g clip-path="url(#d)"><use xlink:href="#b" fill="none" stroke="#323232" stroke-width="20"/></g></svg>
